X:22
T:Miko Doyle's
T:Old Favourite, The
R:slide
H:Also played in A, #60
D:Sean Ryan: Siuil Uait
Z:id:hn-slide-22
M:6/8
K:G
~B3 BAB|dBA G2d|ded ded|ded B2A|
~B3 BAB|dBA G2d|dge dBA|1 GAG G2A:|2 GAG GBd||
|:~g3 fgf|efe d2B|ded ded|ded B2d|
~g3 fgf|efe d2B|1 dge dBA|GAG GBd:|2 dge dge|dge dBA||
P:variations
|:B2B BAG|dBA G2d|ded d2B|ded B2A|
B2B BAG|dBA G2d|ded B2A|1 G3 G2A:|2 G3 GBd||
|:~g3 fgf|efe d2B|ded d2B|ded B2A|
~g3 fgf|efe d2B|ded B2A|1 G3 GBd:|2 G3 G2A||
<end>
<start>
